X:1
T:Wolf Phanomen
T:Wolf Phanomen
L:1/8
Q:1/4=70
M:4/4
K:A
V:1 treble nm="Piano" snm="Pno."
V:1
 A2 Bc ^E>E E2 | A2 AA ^D2 D2 | _E F2 F _G_c_BB | _B_eee d>B B2 | =F_B-BB A>F- F2 | %5
 z _GGG =G>=c c2 | _G G2 G =G>=c c2 | z AAA AG =c2 | z =c_ee e>c c2- | c^c d>d- d=G-GA | %10
 B2 ^A=A =GF ^E2 | F d2 c E>E D2 | F c2 B =FA ^D2 | E c2 e B4- | B>G G2 z4 | z8 |] %16

